X:1
T:Evening Bells
T:Evening Bells
T:Hans Carste 
T:Albert Gamse
T:(Abendglocken)
T:Zodiac Music Corp.
C:Hans Carste
Z:All Rights Reserved
L:1/4
M:4/4
K:G
V:1 treble 
%%MIDI program 40
%%MIDI control 7 100
%%MIDI control 10 64
V:1
 D E D |:"G" B,4- | B, D B G |"D7" A4- | A D F A |"Am7" c3/2 A/ F2- |"D7" F D E F |"G" G4- | %8
w: Ding dong ding|dong,|* at close of|day|* We hear the|EVE- NING BELLS|* from far a-|way.|
 G D"D9" E D |"G" B,4- | B, D B G |"D7" A4- | A D F A |"Am7" c3/2 A/ F2- |"D7" F D E F |"G" G4- | %16
w: * "Your love must|live|* e- ter- nal-|ly"|* So say the|EVE- NING BELLS|* to you and|me.|
 G G G G |"Eb" G4- | G G"Cm" G"Eb7" G |"G" G2 D2- | D G G G |"A" A3 E |"Em7" A2"A7" G2 |"D7" F4- | %24
w: * And as we|hear|* the time- less|mus- sic,|* that seems to|come from|high a-|bove|
 F D E D |"G" B,4- | B, D B G |"D7" A4- | A D F A |"Am7" c3/2 A/ F2- |"D7" F D E F |"G" G4 | %32
w: * We pledge our|love|* to last as|long,|* as long as|EVE- NING BELLS|* will ring their|song.|
"D7" A4 |"G" G4 |"D7" A4 |"G" G4- |1"G" G4 | z D E D :|2"G" G4- | G4 |] %40
w: Ding|Dong|Ding|Dong|Dong|Ding dong ding|Dong||

